ufans-frontend-package/public/assets/images/new-settings/social-link-old.svg

<svg width="96" height="94" viewBox="0 0 96 94" fill="none" xmlns="http://www.w3.org/2000/svg">
<path d="M91.9443 16.1795L79.6685 4.03308C74.2349 -1.31616 65.4119 -1.35228 59.9663 3.97287L46.3449 17.2602C40.8903 22.5823 40.8662 31.2519 46.2847 36.5981L54.0692 29.1206C53.2805 26.7395 54.2528 24.0122 56.1794 22.1248L64.8459 13.6749C67.5913 11.0109 71.9953 11.0229 74.7045 13.7051L82.0767 20.9899C84.7859 23.672 84.7739 27.9918 82.0466 30.6619L73.38 39.1177C71.5468 40.9058 68.5365 41.8871 66.2006 41.258L58.5756 48.7415C64.0031 54.1028 72.8201 54.1268 78.2777 48.8017L91.8841 35.5264C97.3538 30.1953 97.3718 21.5347 91.9443 16.1795Z" fill="#6661E7"/>
<path d="M42.0696 64.8102C42.7168 67.1372 41.6813 70.1474 39.8059 71.9777L31.7113 79.8856C28.9358 82.5949 24.4445 82.5798 21.6811 79.8495L14.1615 72.4413C11.4041 69.714 11.4221 65.2798 14.1976 62.5827L22.2982 54.6747C24.2729 52.7572 27.1086 51.7818 29.583 52.6006L37.3917 44.8643C31.8648 39.4127 22.8702 39.3856 17.3192 44.804L4.18546 57.6278C-1.37149 63.0553 -1.39858 71.8783 4.12525 77.342L16.6299 89.7051C22.1507 95.1507 31.1393 95.1778 36.7023 89.7593L49.8361 76.9356C55.387 71.5021 55.4111 62.685 49.8963 57.2274L42.0696 64.8102Z" fill="#6661E7"/>
<path d="M33.5323 61.2757C35.3716 63.133 38.3818 63.1511 40.2572 61.2998L62.6987 38.9757C64.5681 37.1183 64.5801 34.1141 62.7228 32.2507C60.8775 30.3994 57.8733 30.3874 56.0099 32.2327L33.5624 54.5508C31.696 56.4021 31.684 59.4063 33.5323 61.2757Z" fill="#6661E7"/>
</svg>

<svg xmlns="http://www.w3.org/2000/svg" width="96" height="93.804" viewBox="0 0 96 93.804">
  <g id="social-link-old" transform="translate(0 -0.001)">
    <path id="Path_1" data-name="Path 1" d="M91.944,16.18,79.669,4.033a14.123,14.123,0,0,0-19.7-.06L46.345,17.26a13.5,13.5,0,0,0-.06,19.338l7.785-7.477a7,7,0,0,1,2.11-7l8.667-8.45a7.062,7.062,0,0,1,9.859.03l7.372,7.285a6.755,6.755,0,0,1-.03,9.672l-8.668,8.46a8.063,8.063,0,0,1-7.179,2.14l-7.625,7.484a14.112,14.112,0,0,0,19.7.06L91.884,35.526a13.493,13.493,0,0,0,.06-19.346Z" fill="#e44499"/>
    <path id="Path_2" data-name="Path 2" d="M42.07,64.81a7.844,7.844,0,0,1-2.264,7.167l-8.1,7.908a7.185,7.185,0,0,1-10.03-.036l-7.52-7.408a6.893,6.893,0,0,1,.036-9.859l8.1-7.908A7.422,7.422,0,0,1,29.583,52.6l7.809-7.736a14.393,14.393,0,0,0-20.073-.06L4.185,57.628a13.769,13.769,0,0,0-.06,19.714L16.625,89.7a14.4,14.4,0,0,0,20.072.054L49.836,76.936a13.775,13.775,0,0,0,.06-19.708Z" fill="#e44499"/>
    <path id="Path_3" data-name="Path 3" d="M33.532,61.276a4.76,4.76,0,0,0,6.725.024L62.7,38.976a4.749,4.749,0,1,0-6.689-6.743L33.562,54.551a4.755,4.755,0,0,0-.03,6.725Z" fill="#e44499"/>
  </g>
</svg>
